Newaita-dark/apps/48/stellaris.svg

<svg height="48pt" viewBox="0 0 48 48" width="48pt" xmlns="http://www.w3.org/2000/svg" xmlns:xlink="http://www.w3.org/1999/xlink"><linearGradient id="a"><stop offset="0" stop-opacity=".313725"/><stop offset=".222222" stop-opacity=".27451"/><stop offset="1" stop-opacity="0"/></linearGradient><radialGradient id="b" cx="450.908936" cy="189.579361" gradientTransform="matrix(.00000026 -.117199 -.210958 -.00000015 66.784728 95.392994)" gradientUnits="userSpaceOnUse" r="21.166656" xlink:href="#a"/><radialGradient id="c" cx="450.908936" cy="189.579361" gradientTransform="matrix(-.00000026 .117199 .210958 .00000015 -19.155178 -11.291223)" gradientUnits="userSpaceOnUse" r="21.166656" xlink:href="#a"/><radialGradient id="d" cx="450.908936" cy="189.579361" gradientTransform="matrix(-.00000026 -.117199 .210958 -.00000015 -19.155178 95.392994)" gradientUnits="userSpaceOnUse" r="21.166656" xlink:href="#a"/><radialGradient id="e" cx="450.908936" cy="189.579361" gradientTransform="matrix(.00000026 .117199 -.210958 .00000015 66.784725 -11.291224)" gradientUnits="userSpaceOnUse" r="21.166656" xlink:href="#a"/><linearGradient id="f" gradientTransform="matrix(.0200401 0 0 .093759 18.698079 20.158175)" gradientUnits="userSpaceOnUse" x1="255.323059" x2="255.323044" y1="233.5" y2="254.666656"><stop offset="0" stop-opacity=".27451"/><stop offset="1" stop-opacity="0"/></linearGradient><linearGradient id="g" gradientUnits="userSpaceOnUse" x1="23.814785" x2="23.814785" y1="42.0509015" y2="4.34415649995"><stop offset="0" stop-color="#7e57c2"/><stop offset="1" stop-color="#ba68c8"/></linearGradient><path d="m27.289062 42.050781h3.96875v-1.984375h-3.96875zm0 0" fill="url(#b)"/><path d="m20.339844 42.050781h-3.96875v1.984375h3.96875zm0 0" fill="url(#c)"/><path d="m20.339844 42.050781h-3.96875v-1.984375h3.96875zm0 0" fill="url(#d)"/><path d="m27.289062 42.050781h3.96875v1.984375h-3.96875zm0 0" fill="url(#e)"/><path d="m20.339844 41.554688h6.949218v2.480468h-6.949218zm0 0" fill="url(#f)"/><path d="m23.816406 4.34375c10.410156 0 18.851563 8.441406 18.851563 18.855469 0 10.410156-8.441407 18.851562-18.851563 18.851562-10.414062 0-18.855468-8.441406-18.855468-18.851562 0-10.414063 8.441406-18.855469 18.855468-18.855469zm0 0" fill="url(#g)"/><path d="m10.890625 9.445312c-1.8125 1.707032-3.285156 3.765626-4.3125 6.074219.65625.15625.699219.730469 1.105469.722657.277344 0 .5.335937.5.75-.371094.730468.703125.65625.746094 1.242187-.136719.542969-.5.550781-.496094.996094 0 .554687-.507813.683593-.871094 1l-.875.746093c-.105469.089844-.210938.171876-.316406.246094-.058594 0-.121094.003906-.179688.003906-.382812 0-.757812-.046874-1.113281-.132812-.078125.691406-.117187 1.390625-.117187 2.105469 0 1.117187.097656 2.214843.28125 3.28125 1.789062-.730469 3.828124-1.800781 6.089843-3.273438 3.136719-2.109375 3.988281.929688 6.449219.992188 1.925781 0 3.472656-1.769531 3.472656-3.96875v-.992188c-.394531-3.144531-3-3.238281-2.976562-4.960937 0-1.101563-1.328125-1.988282-2.976563-1.988282-2.667969 1.351563-2.648437-2.097656-4.410156-2.84375zm0 0" fill="#fff" fill-opacity=".313725"/><path d="m30.960938 5.734375c1.339843 2.679687 1.953124 4.316406 1.785156 6.546875.546875 2.15625 2.984375.203125 2.976562 1.984375 0 2.199219 2.800782 2.46875 2.078125 4.25l-1.085937 2.699219c2.273437 1.894531 4.320312 2.875 5.925781 3.03125.019531-.347656.027344-.695313.027344-1.046875 0-7.914063-4.824219-14.660157-11.707031-17.464844zm0 0" fill="#fff" fill-opacity=".313725"/><path d="m5.457031 9.800781c-.214843 0-.179687-.984375-.378906-1.066406s-.871094.636719-1.023437.484375c-.152344-.152344.570312-.824219.484374-1.023438-.082031-.199218-1.066406-.164062-1.066406-.378906s.984375-.179687 1.066406-.378906c.085938-.199219-.636718-.871094-.484374-1.023438.152343-.152343.824218.570313 1.023437.488282.199219-.085938.164063-1.070313.378906-1.070313.214844 0 .179688.984375.378907 1.070313.199218.082031.871093-.640625 1.023437-.488282.152344.152344-.566406.824219-.484375 1.023438s1.066406.164062 1.066406.378906-.984375.179688-1.066406.378906c-.082031.199219.636719.871094.484375 1.023438s-.824219-.566406-1.023437-.484375c-.199219.082031-.164063 1.066406-.378907 1.066406zm0 0" fill="#f06292"/><path d="m3.472656 16.25c-.160156 0-.136718-.738281-.285156-.800781-.148438-.058594-.652344.480469-.765625.367187-.117187-.113281.425781-.621094.363281-.769531s-.800781-.121094-.800781-.285156c0-.160157.738281-.132813.800781-.285157.0625-.148437-.480468-.652343-.363281-.765624.113281-.113282.617187.425781.765625.363281.148438-.058594.125-.800781.285156-.800781s.136719.742187.285156.800781c.148438.0625.652344-.476563.769532-.363281.113281.113281-.429688.617187-.367188.765624.0625.152344.800782.125.800782.285157 0 .164062-.738282.136719-.800782.285156s.480469.65625.367188.769531c-.117188.113282-.621094-.425781-.769532-.367187-.148437.0625-.125.800781-.285156.800781zm0 0" fill="#673ab7" fill-opacity=".980392"/><path d="m23.816406 4.34375c-10.445312 0-18.855468 8.410156-18.855468 18.855469 0 .121093.003906.242187.003906.363281.195312-10.277344 8.527344-18.488281 18.851562-18.488281 10.320313 0 18.65625 8.210937 18.847656 18.488281.003907-.121094.003907-.242188.003907-.363281 0-10.445313-8.410157-18.855469-18.851563-18.855469zm0 0" fill="#fff" fill-opacity=".392157"/><path d="m41.675781 7.816406c-.160156 0-.136719-.738281-.285156-.800781s-.652344.480469-.765625.367187c-.117188-.117187.425781-.621093.363281-.769531-.0625-.148437-.800781-.125-.800781-.285156s.738281-.136719.800781-.285156c.0625-.148438-.480469-.652344-.363281-.765625.113281-.117188.617188.425781.765625.363281s.125-.800781.285156-.800781c.160157 0 .136719.738281.285157.800781.148437.0625.652343-.480469.765624-.363281.117188.113281-.425781.617187-.363281.765625.0625.148437.800781.125.800781.285156s-.738281.136719-.800781.285156c-.0625.148438.480469.652344.363281.769531-.113281.113282-.617187-.429687-.765624-.367187-.148438.0625-.125.800781-.285157.800781zm0 0" fill="#03a9f4" fill-opacity=".980392"/><path d="m42.667969 38.082031c-.214844 0-.179688-.984375-.378907-1.066406-.199218-.085937-.871093.636719-1.023437.484375s.566406-.824219.484375-1.023438c-.082031-.199218-1.066406-.164062-1.066406-.378906s.984375-.179687 1.066406-.378906-.636719-.871094-.484375-1.023438c.152344-.152343.824219.566407 1.023437.484376.199219-.082032.164063-1.066407.378907-1.066407.214843 0 .179687.984375.378906 1.066407.199219.082031.871094-.636719 1.023437-.484376.152344.152344-.566406.824219-.484374 1.023438.082031.199219 1.066406.164062 1.066406.378906s-.984375.179688-1.066406.378906c-.082032.199219.636718.871094.484374 1.023438-.152343.152344-.824218-.570312-1.023437-.484375-.199219.082031-.164063 1.066406-.378906 1.066406zm0 0" fill="#ef5350" fill-opacity=".980392"/><path d="m41.015625 30.949219c-1.984375.917969-3.429687 1.320312-5.292969 1.179687-2.15625.546875-.203125 2.984375-1.984375 2.976563-2.199219 0-2.464843 2.800781-4.25 2.078125-3.9375-.792969-5.4375 1.621094-5.734375 4.867187h.0625c7.675782 0 14.253906-4.542969 17.199219-11.101562zm0 0" fill="#fff" fill-opacity=".313725"/><path d="m23.816406 42.050781c-10.445312 0-18.855468-8.410156-18.855468-18.851562 0-.125.003906-.246094.003906-.367188.195312 10.277344 8.527344 18.488281 18.851562 18.488281 10.320313 0 18.65625-8.210937 18.847656-18.488281.003907.121094.003907.242188.003907.367188 0 10.441406-8.410157 18.851562-18.851563 18.851562zm0 0" fill-opacity=".235294"/><path d="m38.203125 41.058594c-.160156 0-.136719-.738282-.285156-.800782-.148438-.0625-.652344.480469-.769531.363282-.113282-.113282.429687-.617188.367187-.765625-.0625-.148438-.800781-.125-.800781-.285157 0-.160156.738281-.136718.800781-.285156.0625-.148437-.480469-.652344-.367187-.765625.117187-.117187.621093.425781.769531.363281.148437-.0625.125-.800781.285156-.800781s.136719.738281.285156.800781c.148438.0625.652344-.480468.765625-.363281.117188.113281-.425781.617188-.363281.765625.0625.148438.800781.125.800781.285156 0 .160157-.738281.136719-.800781.285157-.0625.148437.480469.652343.363281.765625-.113281.117187-.617187-.425782-.765625-.363282-.148437.0625-.125.800782-.285156.800782zm0 0" fill="#ffa726" fill-opacity=".980392"/><path d="m23.816406 4.203125c-10.523437 0-18.996094 8.472656-18.996094 18.996094 0 10.519531 8.472657 18.992187 18.996094 18.992187 10.519532 0 18.992188-8.472656 18.992188-18.992187 0-10.523438-8.472656-18.996094-18.992188-18.996094zm0 .28125c10.367188 0 18.710938 8.34375 18.710938 18.714844 0 10.367187-8.34375 18.710937-18.710938 18.710937-10.371094 0-18.714844-8.34375-18.714844-18.710937 0-10.371094 8.34375-18.714844 18.714844-18.714844zm0 0" fill="#212121"/><path d="m4.960938 39.074219c-.214844 0-.179688-.984375-.378907-1.066407-.199219-.085937-.871093.636719-1.023437.484376-.152344-.152344.570312-.824219.484375-1.023438-.082031-.199219-1.066407-.164062-1.066407-.378906s.984376-.179688 1.066407-.378906c.085937-.199219-.636719-.871094-.484375-1.023438s.824218.566406 1.023437.484375.164063-1.066406.378907-1.066406c.214843 0 .179687.984375.378906 1.066406.199218.082031.871094-.636719 1.023437-.484375.152344.152344-.566406.824219-.484375 1.023438.082032.199218 1.066406.164062 1.066406.378906s-.984374.179687-1.066406.378906c-.082031.199219.636719.871094.484375 1.023438-.152343.152343-.824219-.570313-1.023437-.484376-.199219.082032-.164063 1.066407-.378906 1.066407zm0 0" fill="#5c6bc0"/></svg>

<?xml version="1.0" encoding="UTF-8"?>
<svg xmlns="http://www.w3.org/2000/svg" xmlns:xlink="http://www.w3.org/1999/xlink" width="48pt" height="48pt" viewBox="0 0 48 48" version="1.1">
<defs>
<radialGradient id="radial0" gradientUnits="userSpaceOnUse" cx="450.908936" cy="189.579361" fx="450.908936" fy="189.579361" r="21.166656" gradientTransform="matrix(0.000000261256,-0.117199,-0.210958,-0.000000152308,66.784728,95.392994)">
<stop offset="0" style="stop-color:rgb(0%,0%,0%);stop-opacity:0.313725;"/>
<stop offset="0.222222" style="stop-color:rgb(0%,0%,0%);stop-opacity:0.27451;"/>
<stop offset="1" style="stop-color:rgb(0%,0%,0%);stop-opacity:0;"/>
</radialGradient>
<radialGradient id="radial1" gradientUnits="userSpaceOnUse" cx="450.908936" cy="189.579361" fx="450.908936" fy="189.579361" r="21.166656" gradientTransform="matrix(-0.000000261256,0.117199,0.210958,0.000000152308,-19.155178,-11.291223)">
<stop offset="0" style="stop-color:rgb(0%,0%,0%);stop-opacity:0.313725;"/>
<stop offset="0.222222" style="stop-color:rgb(0%,0%,0%);stop-opacity:0.27451;"/>
<stop offset="1" style="stop-color:rgb(0%,0%,0%);stop-opacity:0;"/>
</radialGradient>
<radialGradient id="radial2" gradientUnits="userSpaceOnUse" cx="450.908936" cy="189.579361" fx="450.908936" fy="189.579361" r="21.166656" gradientTransform="matrix(-0.000000261256,-0.117199,0.210958,-0.000000152308,-19.155178,95.392994)">
<stop offset="0" style="stop-color:rgb(0%,0%,0%);stop-opacity:0.313725;"/>
<stop offset="0.222222" style="stop-color:rgb(0%,0%,0%);stop-opacity:0.27451;"/>
<stop offset="1" style="stop-color:rgb(0%,0%,0%);stop-opacity:0;"/>
</radialGradient>
<radialGradient id="radial3" gradientUnits="userSpaceOnUse" cx="450.908936" cy="189.579361" fx="450.908936" fy="189.579361" r="21.166656" gradientTransform="matrix(0.000000261256,0.117199,-0.210958,0.000000152308,66.784725,-11.291224)">
<stop offset="0" style="stop-color:rgb(0%,0%,0%);stop-opacity:0.313725;"/>
<stop offset="0.222222" style="stop-color:rgb(0%,0%,0%);stop-opacity:0.27451;"/>
<stop offset="1" style="stop-color:rgb(0%,0%,0%);stop-opacity:0;"/>
</radialGradient>
<linearGradient id="linear0" gradientUnits="userSpaceOnUse" x1="255.323059" y1="233.5" x2="255.323044" y2="254.666656" gradientTransform="matrix(0.0200401,0,0,0.093759,18.698079,20.158175)">
<stop offset="0" style="stop-color:rgb(0%,0%,0%);stop-opacity:0.27451;"/>
<stop offset="1" style="stop-color:rgb(0%,0%,0%);stop-opacity:0;"/>
</linearGradient>
<linearGradient id="linear1" gradientUnits="userSpaceOnUse" x1="254" y1="233.5" x2="254" y2="-168.666672" gradientTransform="matrix(0.093759,0,0,0.093759,-0.000000889869,20.158175)">
<stop offset="0" style="stop-color:rgb(49.411765%,34.117647%,76.078431%);stop-opacity:1;"/>
<stop offset="1" style="stop-color:rgb(72.941176%,40.784314%,78.431373%);stop-opacity:1;"/>
</linearGradient>
</defs>
<g id="surface1">
<path style=" stroke:none;fill-rule:nonzero;fill:url(#radial0);" d="M 27.289062 42.050781 L 31.257812 42.050781 L 31.257812 40.066406 L 27.289062 40.066406 Z M 27.289062 42.050781 "/>
<path style=" stroke:none;fill-rule:nonzero;fill:url(#radial1);" d="M 20.339844 42.050781 L 16.371094 42.050781 L 16.371094 44.035156 L 20.339844 44.035156 Z M 20.339844 42.050781 "/>
<path style=" stroke:none;fill-rule:nonzero;fill:url(#radial2);" d="M 20.339844 42.050781 L 16.371094 42.050781 L 16.371094 40.066406 L 20.339844 40.066406 Z M 20.339844 42.050781 "/>
<path style=" stroke:none;fill-rule:nonzero;fill:url(#radial3);" d="M 27.289062 42.050781 L 31.257812 42.050781 L 31.257812 44.035156 L 27.289062 44.035156 Z M 27.289062 42.050781 "/>
<path style=" stroke:none;fill-rule:nonzero;fill:url(#linear0);" d="M 20.339844 41.554688 L 27.289062 41.554688 L 27.289062 44.035156 L 20.339844 44.035156 Z M 20.339844 41.554688 "/>
<path style=" stroke:none;fill-rule:nonzero;fill:url(#linear1);" d="M 23.816406 4.34375 C 34.226562 4.34375 42.667969 12.785156 42.667969 23.199219 C 42.667969 33.609375 34.226562 42.050781 23.816406 42.050781 C 13.402344 42.050781 4.960938 33.609375 4.960938 23.199219 C 4.960938 12.785156 13.402344 4.34375 23.816406 4.34375 Z M 23.816406 4.34375 "/>
<path style=" stroke:none;fill-rule:nonzero;fill:rgb(100%,100%,100%);fill-opacity:0.313725;" d="M 10.890625 9.445312 C 9.078125 11.152344 7.605469 13.210938 6.578125 15.519531 C 7.234375 15.675781 7.277344 16.25 7.683594 16.242188 C 7.960938 16.242188 8.183594 16.578125 8.183594 16.992188 C 7.8125 17.722656 8.886719 17.648438 8.929688 18.234375 C 8.792969 18.777344 8.429688 18.785156 8.433594 19.230469 C 8.433594 19.785156 7.925781 19.914062 7.5625 20.230469 L 6.6875 20.976562 C 6.582031 21.066406 6.476562 21.148438 6.371094 21.222656 C 6.3125 21.222656 6.25 21.226562 6.191406 21.226562 C 5.808594 21.226562 5.433594 21.179688 5.078125 21.09375 C 5 21.785156 4.960938 22.484375 4.960938 23.199219 C 4.960938 24.316406 5.058594 25.414062 5.242188 26.480469 C 7.03125 25.75 9.070312 24.679688 11.332031 23.207031 C 14.46875 21.097656 15.320312 24.136719 17.78125 24.199219 C 19.707031 24.199219 21.253906 22.429688 21.253906 20.230469 L 21.253906 19.238281 C 20.859375 16.09375 18.253906 16 18.277344 14.277344 C 18.277344 13.175781 16.949219 12.289062 15.300781 12.289062 C 12.632812 13.640625 12.652344 10.191406 10.890625 9.445312 Z M 10.890625 9.445312 "/>
<path style=" stroke:none;fill-rule:nonzero;fill:rgb(100%,100%,100%);fill-opacity:0.313725;" d="M 30.960938 5.734375 C 32.300781 8.414062 32.914062 10.050781 32.746094 12.28125 C 33.292969 14.4375 35.730469 12.484375 35.722656 14.265625 C 35.722656 16.464844 38.523438 16.734375 37.800781 18.515625 L 36.714844 21.214844 C 38.988281 23.109375 41.035156 24.089844 42.640625 24.246094 C 42.660156 23.898438 42.667969 23.550781 42.667969 23.199219 C 42.667969 15.285156 37.84375 8.539062 30.960938 5.734375 Z M 30.960938 5.734375 "/>
<path style=" stroke:none;fill-rule:nonzero;fill:rgb(94.117647%,38.431373%,57.254905%);fill-opacity:1;" d="M 5.457031 9.800781 C 5.242188 9.800781 5.277344 8.816406 5.078125 8.734375 C 4.878906 8.652344 4.207031 9.371094 4.054688 9.21875 C 3.902344 9.066406 4.625 8.394531 4.539062 8.195312 C 4.457031 7.996094 3.472656 8.03125 3.472656 7.816406 C 3.472656 7.601562 4.457031 7.636719 4.539062 7.4375 C 4.625 7.238281 3.902344 6.566406 4.054688 6.414062 C 4.207031 6.261719 4.878906 6.984375 5.078125 6.902344 C 5.277344 6.816406 5.242188 5.832031 5.457031 5.832031 C 5.671875 5.832031 5.636719 6.816406 5.835938 6.902344 C 6.035156 6.984375 6.707031 6.261719 6.859375 6.414062 C 7.011719 6.566406 6.292969 7.238281 6.375 7.4375 C 6.457031 7.636719 7.441406 7.601562 7.441406 7.816406 C 7.441406 8.03125 6.457031 7.996094 6.375 8.195312 C 6.292969 8.394531 7.011719 9.066406 6.859375 9.21875 C 6.707031 9.371094 6.035156 8.652344 5.835938 8.734375 C 5.636719 8.816406 5.671875 9.800781 5.457031 9.800781 Z M 5.457031 9.800781 "/>
<path style=" stroke:none;fill-rule:nonzero;fill:rgb(40.392157%,22.745098%,71.764708%);fill-opacity:0.980392;" d="M 3.472656 16.25 C 3.3125 16.25 3.335938 15.511719 3.1875 15.449219 C 3.039062 15.390625 2.535156 15.929688 2.421875 15.816406 C 2.304688 15.703125 2.847656 15.195312 2.785156 15.046875 C 2.722656 14.898438 1.984375 14.925781 1.984375 14.761719 C 1.984375 14.601562 2.722656 14.628906 2.785156 14.476562 C 2.847656 14.328125 2.304688 13.824219 2.421875 13.710938 C 2.535156 13.597656 3.039062 14.136719 3.1875 14.074219 C 3.335938 14.015625 3.3125 13.273438 3.472656 13.273438 C 3.632812 13.273438 3.609375 14.015625 3.757812 14.074219 C 3.90625 14.136719 4.410156 13.597656 4.527344 13.710938 C 4.640625 13.824219 4.097656 14.328125 4.160156 14.476562 C 4.222656 14.628906 4.960938 14.601562 4.960938 14.761719 C 4.960938 14.925781 4.222656 14.898438 4.160156 15.046875 C 4.097656 15.195312 4.640625 15.703125 4.527344 15.816406 C 4.410156 15.929688 3.90625 15.390625 3.757812 15.449219 C 3.609375 15.511719 3.632812 16.25 3.472656 16.25 Z M 3.472656 16.25 "/>
<path style=" stroke:none;fill-rule:nonzero;fill:rgb(100%,100%,100%);fill-opacity:0.392157;" d="M 23.816406 4.34375 C 13.371094 4.34375 4.960938 12.753906 4.960938 23.199219 C 4.960938 23.320312 4.964844 23.441406 4.964844 23.5625 C 5.160156 13.285156 13.492188 5.074219 23.816406 5.074219 C 34.136719 5.074219 42.472656 13.285156 42.664062 23.5625 C 42.667969 23.441406 42.667969 23.320312 42.667969 23.199219 C 42.667969 12.753906 34.257812 4.34375 23.816406 4.34375 Z M 23.816406 4.34375 "/>
<path style=" stroke:none;fill-rule:nonzero;fill:rgb(1.176471%,66.274512%,95.686275%);fill-opacity:0.980392;" d="M 41.675781 7.816406 C 41.515625 7.816406 41.539062 7.078125 41.390625 7.015625 C 41.242188 6.953125 40.738281 7.496094 40.625 7.382812 C 40.507812 7.265625 41.050781 6.761719 40.988281 6.613281 C 40.925781 6.464844 40.1875 6.488281 40.1875 6.328125 C 40.1875 6.167969 40.925781 6.191406 40.988281 6.042969 C 41.050781 5.894531 40.507812 5.390625 40.625 5.277344 C 40.738281 5.160156 41.242188 5.703125 41.390625 5.640625 C 41.539062 5.578125 41.515625 4.839844 41.675781 4.839844 C 41.835938 4.839844 41.8125 5.578125 41.960938 5.640625 C 42.109375 5.703125 42.613281 5.160156 42.726562 5.277344 C 42.84375 5.390625 42.300781 5.894531 42.363281 6.042969 C 42.425781 6.191406 43.164062 6.167969 43.164062 6.328125 C 43.164062 6.488281 42.425781 6.464844 42.363281 6.613281 C 42.300781 6.761719 42.84375 7.265625 42.726562 7.382812 C 42.613281 7.496094 42.109375 6.953125 41.960938 7.015625 C 41.8125 7.078125 41.835938 7.816406 41.675781 7.816406 Z M 41.675781 7.816406 "/>
<path style=" stroke:none;fill-rule:nonzero;fill:rgb(93.725491%,32.549021%,31.37255%);fill-opacity:0.980392;" d="M 42.667969 38.082031 C 42.453125 38.082031 42.488281 37.097656 42.289062 37.015625 C 42.089844 36.929688 41.417969 37.652344 41.265625 37.5 C 41.113281 37.347656 41.832031 36.675781 41.75 36.476562 C 41.667969 36.277344 40.683594 36.3125 40.683594 36.097656 C 40.683594 35.882812 41.667969 35.917969 41.75 35.71875 C 41.832031 35.519531 41.113281 34.847656 41.265625 34.695312 C 41.417969 34.542969 42.089844 35.261719 42.289062 35.179688 C 42.488281 35.097656 42.453125 34.113281 42.667969 34.113281 C 42.882812 34.113281 42.847656 35.097656 43.046875 35.179688 C 43.246094 35.261719 43.917969 34.542969 44.070312 34.695312 C 44.222656 34.847656 43.503906 35.519531 43.585938 35.71875 C 43.667969 35.917969 44.652344 35.882812 44.652344 36.097656 C 44.652344 36.3125 43.667969 36.277344 43.585938 36.476562 C 43.503906 36.675781 44.222656 37.347656 44.070312 37.5 C 43.917969 37.652344 43.246094 36.929688 43.046875 37.015625 C 42.847656 37.097656 42.882812 38.082031 42.667969 38.082031 Z M 42.667969 38.082031 "/>
<path style=" stroke:none;fill-rule:nonzero;fill:rgb(100%,100%,100%);fill-opacity:0.313725;" d="M 41.015625 30.949219 C 39.03125 31.867188 37.585938 32.269531 35.722656 32.128906 C 33.566406 32.675781 35.519531 35.113281 33.738281 35.105469 C 31.539062 35.105469 31.273438 37.90625 29.488281 37.183594 C 25.550781 36.390625 24.050781 38.804688 23.753906 42.050781 C 23.773438 42.050781 23.792969 42.050781 23.816406 42.050781 C 31.492188 42.050781 38.070312 37.507812 41.015625 30.949219 Z M 41.015625 30.949219 "/>
<path style=" stroke:none;fill-rule:nonzero;fill:rgb(0%,0%,0%);fill-opacity:0.235294;" d="M 23.816406 42.050781 C 13.371094 42.050781 4.960938 33.640625 4.960938 23.199219 C 4.960938 23.074219 4.964844 22.953125 4.964844 22.832031 C 5.160156 33.109375 13.492188 41.320312 23.816406 41.320312 C 34.136719 41.320312 42.472656 33.109375 42.664062 22.832031 C 42.667969 22.953125 42.667969 23.074219 42.667969 23.199219 C 42.667969 33.640625 34.257812 42.050781 23.816406 42.050781 Z M 23.816406 42.050781 "/>
<path style=" stroke:none;fill-rule:nonzero;fill:rgb(100%,65.490198%,14.901961%);fill-opacity:0.980392;" d="M 38.203125 41.058594 C 38.042969 41.058594 38.066406 40.320312 37.917969 40.257812 C 37.769531 40.195312 37.265625 40.738281 37.148438 40.621094 C 37.035156 40.507812 37.578125 40.003906 37.515625 39.855469 C 37.453125 39.707031 36.714844 39.730469 36.714844 39.570312 C 36.714844 39.410156 37.453125 39.433594 37.515625 39.285156 C 37.578125 39.136719 37.035156 38.632812 37.148438 38.519531 C 37.265625 38.402344 37.769531 38.945312 37.917969 38.882812 C 38.066406 38.820312 38.042969 38.082031 38.203125 38.082031 C 38.363281 38.082031 38.339844 38.820312 38.488281 38.882812 C 38.636719 38.945312 39.140625 38.402344 39.253906 38.519531 C 39.371094 38.632812 38.828125 39.136719 38.890625 39.285156 C 38.953125 39.433594 39.691406 39.410156 39.691406 39.570312 C 39.691406 39.730469 38.953125 39.707031 38.890625 39.855469 C 38.828125 40.003906 39.371094 40.507812 39.253906 40.621094 C 39.140625 40.738281 38.636719 40.195312 38.488281 40.257812 C 38.339844 40.320312 38.363281 41.058594 38.203125 41.058594 Z M 38.203125 41.058594 "/>
<path style=" stroke:none;fill-rule:nonzero;fill:rgb(12.941177%,12.941177%,12.941177%);fill-opacity:1;" d="M 23.816406 4.203125 C 13.292969 4.203125 4.820312 12.675781 4.820312 23.199219 C 4.820312 33.71875 13.292969 42.191406 23.816406 42.191406 C 34.335938 42.191406 42.808594 33.71875 42.808594 23.199219 C 42.808594 12.675781 34.335938 4.203125 23.816406 4.203125 Z M 23.816406 4.484375 C 34.183594 4.484375 42.527344 12.828125 42.527344 23.199219 C 42.527344 33.566406 34.183594 41.910156 23.816406 41.910156 C 13.445312 41.910156 5.101562 33.566406 5.101562 23.199219 C 5.101562 12.828125 13.445312 4.484375 23.816406 4.484375 Z M 23.816406 4.484375 "/>
<path style=" stroke:none;fill-rule:nonzero;fill:rgb(36.078432%,41.960785%,75.294119%);fill-opacity:1;" d="M 4.960938 39.074219 C 4.746094 39.074219 4.78125 38.089844 4.582031 38.007812 C 4.382812 37.921875 3.710938 38.644531 3.558594 38.492188 C 3.40625 38.339844 4.128906 37.667969 4.042969 37.46875 C 3.960938 37.269531 2.976562 37.304688 2.976562 37.089844 C 2.976562 36.875 3.960938 36.910156 4.042969 36.710938 C 4.128906 36.511719 3.40625 35.839844 3.558594 35.6875 C 3.710938 35.535156 4.382812 36.253906 4.582031 36.171875 C 4.78125 36.089844 4.746094 35.105469 4.960938 35.105469 C 5.175781 35.105469 5.140625 36.089844 5.339844 36.171875 C 5.539062 36.253906 6.210938 35.535156 6.363281 35.6875 C 6.515625 35.839844 5.796875 36.511719 5.878906 36.710938 C 5.960938 36.910156 6.945312 36.875 6.945312 37.089844 C 6.945312 37.304688 5.960938 37.269531 5.878906 37.46875 C 5.796875 37.667969 6.515625 38.339844 6.363281 38.492188 C 6.210938 38.644531 5.539062 37.921875 5.339844 38.007812 C 5.140625 38.089844 5.175781 39.074219 4.960938 39.074219 Z M 4.960938 39.074219 "/>
</g>
</svg>
